X: 57
T: Najdzie się kiedy chwila tak szczęśliwa,
C: Mikołaj Gomółka
%%abc-version 2.0
%%abcx-abcm2ps-target-version 5.9.1 (29 Sep 2008)
%%abc-creator hum2abc beta
%%abcx-conversion-date 2021/10/04 07:59:09
%%abc-edited-by Anna Matuszewska
%%abcx-initial-encoding-date 2020-02-12
%%humdrum-veritas 1115062770
%%humdrum-veritas-data 2536165488
%%linebreak <none>
%%barnumbers 0
L: 1/4
M: 4/2
N: Derived from pl-wn--sd-xvi-qu-273--058_gomolka-mikolaj--najdzie-sie-kiedy-chwila-tak-szczesliwa.krn
%%staves [1 2 3 4]
V: 1
V: 2 clef=alto
V: 3 clef=tenor
V: 4 clef=bass
K: C
[V:1] D4F2G2 | 
[V:2] C4D2D2 | 
[V:3] D,4A,2B,2 | 
[V:4] D,4D,2B,,2 [|] 
[V:1] A2>G2ABc2 | 
[V:2] E4E2A2 | 
[V:3] C2C2C2A,2 | 
[V:4] A,,2A,,2A,2F,2 [|] 
[V:1] B2A2A2^G2 | 
[V:2] G2E2E3D | 
[V:3] D2>C2B,A,B,2 | 
[V:4] G,2A,2E,4 [|] 
[V:1] A2F2E2^F2 | 
[V:2] ^C2D2A,2D2 | 
[V:3] A,2A,2A,2A,2 | 
[V:4] A,,2D,2^C,2D,2 [|] 
[V:1] ^G4A2D2 | 
[V:2] D4E^F2G2 | 
[V:3] B,4^C2D2 | 
[V:4] B,,4A,,2B,,2 [|] 
[V:1] E2F2EDD4 | 
[V:2] AD2B,2G,2 | 
[V:3] A,2A,2G,F,E,D, | 
[V:4] ^C,2D,2G,,2_B,,2 [|] 
[V:1] C2D2A2 | 
[V:2] A,4A,2F2 | 
[V:3] E,4D,2D2 | 
[V:4] A,,4D,2D,2 [|] 
[V:1] G2G2G3F | 
[V:2] D2ECDE2D | 
[V:3] B,2CA,B,C2B, | 
[V:4] G,2C,2G,,4 [|] 
[V:1] E2D2E2F2 | 
[V:2] EFG2C2B,2 | 
[V:3] C2B,2A,2G,F, | 
[V:4] C,2G,,2C,2D,2 [|] 
[V:1] F2E2F2C2 | 
[V:2] C2>B,2A,2C2 | 
[V:3] G,4F,2A,2 | 
[V:4] C,4F,,2F,,2 [|] 
[V:1] E2D2F4 | 
[V:2] C2B,2A,3B, | 
[V:3] G,2G,2F,3G, | 
[V:4] C,2G,,2D,4 [|] 
[V:1] E2G2F2EF | 
[V:2] C2>B,2A,B,CA, | 
[V:3] A,2E,2F,G,A,F, | 
[V:4] C,2C,2D,2A,,2 [|] 
[V:1] EDD4C2 | 
[V:2] B,A,2G,2<A,2G, | 
[V:3] G,F,E,D,E,4 | 
[V:4] G,,2_B,,2A,,4 [|] 
[V:1] D8 |]  
[V:2] ^A,8 |]  
[V:3] D,8 |]  
[V:4] D,8 |]  


